folder-key.svg

<svg fill="currentColor" viewBox="0 0 24 24"><path d="M4 4c-1.1 0-2 .9-2 2v12c0 1.1.9 2 2 2h16c1.1 0 2-.9 2-2V8c0-1.1-.9-2-2-2h-8l-2-2m1 6c1.3 0 2.4.8 2.8 2H20v2h-2v2h-2v-2h-2.2c-.4 1.2-1.5 2-2.8 2-1.7 0-3-1.3-3-3s1.3-3 3-3m0 2c-.6 0-1 .4-1 1s.4 1 1 1 1-.4 1-1-.4-1-1-1"/></svg>

<svg  viewBox="0 0 24 24" fill="currentColor"><path  d="M4 4C2.9 4 2 4.9 2 6V18C2 19.1 2.9 20 4 20H20C21.1 20 22 19.1 22 18V8C22 6.9 21.1 6 20 6H12L10 4M11 10C12.3 10 13.4 10.8 13.8 12H20V14H18V16H16V14H13.8C13.4 15.2 12.3 16 11 16C9.3 16 8 14.7 8 13S9.3 10 11 10M11 12C10.4 12 10 12.4 10 13C10 13.6 10.4 14 11 14C11.6 14 12 13.6 12 13S11.6 12 11 12Z"/></svg>
